X: 42031
T: Waltz After Olle Frank
R: waltz
M: 3/4
K: Dmajor
F>G|:"D"A4A2|B2AGF2|Ad dc de|d2 cA de|f4a2|"A"a2 gf ec|Ac eg fe|"G"d2BdBG|
"A"A4 F>G|"D"A2 BA FA|d2z2d>d|d2 cAde|f4a2|"A"a2 gf ec|Ac eg fe|"D"d4:|
d|:"G"b2gb^gb|"D"a2 fd fa|"A"ab ag ec|"D"A2 df a2|"G"b2gb^gb|"D"a2 fd fa|"A"ab ag ec|"D"d4:|
ddB|"D"A2d2g2|f3ed2|"G"d2 gb ^gb|"D"a3fd2|"dm"de=f2d2|"C"e4c2|"E7"c2 Bd B^G|"A"A4A2|
"D"A2f2A2|"G"g3fg2|"D"A2d2f2|"A"e3de2|ABc2d2|"E"E3^GB2|"A"AB A=G EC|"D"D6|

